flaticon/gastronomy/kebab-1.svg

<svg xmlns="http://www.w3.org/2000/svg" width="32" height="32" viewBox="0 0 24 24">
    <path d="M23.578125 4.75C23.417969 4.589844 23.160156 4.589844 23 4.75L21.554688 6.199219 21.117188 5.765625C20.578125 5.226562 19.632812 5.226562 19.09375 5.765625 18.824219 6.035156 18.675781 6.394531 18.675781 6.777344 18.675781 7.160156 18.824219 7.519531 19.09375 7.792969L19.21875 7.914062 17.140625 7.914062C16.6875 7.914062 16.320312 8.28125 16.320312 8.734375L16.320312 10.554688C16.054688 10.453125 15.769531 10.402344 15.472656 10.402344 14.816406 10.402344 14.203125 10.65625 13.738281 11.121094 13.117188 11.742188 12.90625 12.609375 13.085938 13.40625 12.539062 13.050781 11.75 13.109375 11.277344 13.582031 11.007812 13.851562 10.859375 14.210938 10.859375 14.59375 10.859375 14.976562 11.007812 15.335938 11.277344 15.609375L11.402344 15.734375 9.324219 15.734375C8.871094 15.734375 8.503906 16.101562 8.503906 16.550781L8.503906 18.375C7.945312 17.820312 7.039062 17.820312 6.480469 18.375 5.921875 18.933594 5.921875 19.84375 6.480469 20.402344L6.917969 20.835938 5.679688 22.074219C5.640625 22.109375 5.613281 22.15625 5.589844 22.207031 5.570312 22.257812 5.558594 22.308594 5.558594 22.363281 5.558594 22.8125 5.191406 23.179688 4.742188 23.179688 4.289062 23.179688 3.921875 22.8125 3.921875 22.363281 3.921875 21.910156 4.289062 21.542969 4.742188 21.542969 4.96875 21.542969 5.152344 21.359375 5.152344 21.132812 5.152344 20.90625 4.96875 20.726562 4.742188 20.726562 3.839844 20.726562 3.105469 21.460938 3.105469 22.363281 3.105469 23.265625 3.839844 24 4.742188 24 5.578125 24 6.265625 23.363281 6.359375 22.550781L7.496094 21.414062 7.929688 21.851562C8.207031 22.128906 8.574219 22.269531 8.941406 22.269531 9.308594 22.269531 9.675781 22.128906 9.957031 21.851562 10.515625 21.292969 10.515625 20.386719 9.957031 19.828125L11.78125 19.828125C12.234375 19.828125 12.601562 19.460938 12.601562 19.007812L12.601562 16.929688 12.726562 17.054688C13.003906 17.335938 13.371094 17.472656 13.738281 17.472656 14.105469 17.472656 14.472656 17.335938 14.75 17.054688 15.242188 16.5625 15.300781 15.800781 14.925781 15.246094 15.109375 15.285156 15.289062 15.3125 15.476562 15.3125 16.105469 15.3125 16.734375 15.074219 17.210938 14.59375 17.675781 14.132812 17.929688 13.515625 17.929688 12.859375 17.929688 12.5625 17.878906 12.277344 17.777344 12.011719L19.597656 12.011719C20.050781 12.011719 20.417969 11.644531 20.417969 11.191406L20.417969 9.117188 20.539062 9.238281C20.820312 9.519531 21.1875 9.660156 21.554688 9.660156 21.921875 9.660156 22.289062 9.519531 22.566406 9.238281 23.125 8.679688 23.125 7.773438 22.566406 7.214844L22.132812 6.78125 23.582031 5.332031C23.738281 5.171875 23.738281 4.910156 23.578125 4.75zM9.375 21.269531C9.136719 21.511719 8.746094 21.507812 8.507812 21.269531L7.058594 19.824219C6.820312 19.582031 6.820312 19.195312 7.058594 18.953125 7.179688 18.835938 7.335938 18.777344 7.496094 18.777344 7.652344 18.777344 7.808594 18.835938 7.929688 18.953125L9.375 20.402344C9.492188 20.515625 9.554688 20.671875 9.554688 20.835938 9.554688 21 9.492188 21.15625 9.375 21.269531zM11.78125 19.007812L9.324219 19.007812 9.324219 16.550781 11.78125 16.550781zM14.171875 16.476562C13.941406 16.707031 13.53125 16.707031 13.300781 16.476562L11.855469 15.027344C11.738281 14.914062 11.675781 14.757812 11.675781 14.59375 11.675781 14.429688 11.738281 14.277344 11.855469 14.160156 11.96875 14.042969 12.125 13.980469 12.289062 13.980469 12.453125 13.980469 12.609375 14.042969 12.722656 14.160156L14.171875 15.605469C14.410156 15.847656 14.410156 16.238281 14.171875 16.476562zM16.632812 14.015625C15.992188 14.652344 14.953125 14.652344 14.316406 14.015625 13.675781 13.375 13.675781 12.335938 14.316406 11.699219 14.625 11.390625 15.035156 11.21875 15.472656 11.21875 15.800781 11.21875 16.113281 11.316406 16.382812 11.492188 16.464844 11.699219 16.628906 11.867188 16.835938 11.949219 17.015625 12.214844 17.113281 12.53125 17.113281 12.855469 17.113281 13.296875 16.941406 13.707031 16.632812 14.015625zM19.597656 11.191406L17.273438 11.191406C17.25 11.167969 17.234375 11.144531 17.210938 11.121094 17.1875 11.097656 17.164062 11.078125 17.140625 11.058594L17.140625 8.734375 19.597656 8.734375zM21.988281 8.660156C21.757812 8.890625 21.347656 8.890625 21.117188 8.660156L19.671875 7.210938C19.554688 7.097656 19.492188 6.941406 19.492188 6.777344 19.492188 6.613281 19.554688 6.460938 19.671875 6.34375 19.785156 6.226562 19.941406 6.164062 20.105469 6.164062 20.269531 6.164062 20.425781 6.226562 20.539062 6.34375L21.988281 7.789062C22.226562 8.03125 22.226562 8.421875 21.988281 8.660156zM3.34375 16.300781L4.761719 14.882812 5.632812 15.753906C5.789062 15.910156 6 15.992188 6.210938 15.992188 6.417969 15.992188 6.628906 15.910156 6.789062 15.753906L7.65625 14.882812C7.8125 14.730469 7.898438 14.523438 7.898438 14.304688 7.898438 14.144531 7.851562 13.992188 7.765625 13.859375 8.382812 13.835938 8.957031 13.585938 9.394531 13.148438 9.832031 12.707031 10.082031 12.132812 10.109375 11.519531 10.242188 11.605469 10.398438 11.648438 10.550781 11.648438 10.761719 11.648438 10.972656 11.570312 11.132812 11.410156L12 10.539062C12.277344 10.265625 12.3125 9.835938 12.109375 9.519531 12.722656 9.492188 13.296875 9.242188 13.734375 8.804688 14.175781 8.367188 14.425781 7.789062 14.449219 7.175781 14.585938 7.261719 14.738281 7.304688 14.894531 7.304688 15.105469 7.304688 15.3125 7.226562 15.472656 7.066406L16.339844 6.199219C16.621094 5.921875 16.65625 5.488281 16.445312 5.171875 17.039062 5.144531 17.625 4.914062 18.078125 4.460938 18.542969 4 18.796875 3.382812 18.796875 2.726562 18.796875 2.207031 18.636719 1.714844 18.34375 1.304688L18.945312.699219C19.105469.539062 19.105469.28125 18.945312.121094 18.785156-.0390625 18.527344-.0390625 18.367188.121094L17.761719.726562C16.800781.046875 15.464844.128906 14.605469.988281 14.167969 1.425781 13.917969 2.003906 13.890625 2.621094 13.578125 2.421875 13.136719 2.457031 12.867188 2.726562L12 3.59375C11.84375 3.75 11.761719 3.953125 11.761719 4.171875 11.761719 4.335938 11.808594 4.488281 11.894531 4.621094 11.300781 4.648438 10.714844 4.878906 10.261719 5.332031 9.808594 5.78125 9.578125 6.367188 9.554688 6.960938 9.238281 6.753906 8.804688 6.789062 8.527344 7.066406L7.65625 7.9375C7.378906 8.214844 7.34375 8.640625 7.546875 8.957031 6.933594 8.984375 6.359375 9.234375 5.921875 9.671875 5.46875 10.125 5.238281 10.710938 5.210938 11.304688 4.898438 11.105469 4.453125 11.140625 4.183594 11.410156L3.316406 12.277344C3.160156 12.433594 3.074219 12.636719 3.074219 12.855469 3.074219 13.074219 3.160156 13.28125 3.316406 13.4375L4.183594 14.304688 2.523438 15.964844C2.523438 15.964844 2.519531 15.964844 2.515625 15.96875 2.355469 16.128906 2.355469 16.386719 2.515625 16.546875 2.835938 16.867188 2.835938 17.386719 2.515625 17.707031 2.199219 18.023438 1.675781 18.023438 1.359375 17.707031 1.039062 17.386719 1.039062 16.867188 1.359375 16.546875 1.519531 16.386719 1.519531 16.128906 1.359375 15.96875 1.199219 15.808594.941406 15.808594.78125 15.96875.140625 16.605469.140625 17.644531.78125 18.285156 1.097656 18.601562 1.519531 18.761719 1.9375 18.761719 2.355469 18.761719 2.777344 18.601562 3.09375 18.285156 3.632812 17.746094 3.710938 16.929688 3.34375 16.300781zM15.183594 1.566406C15.503906 1.25 15.921875 1.089844 16.34375 1.089844 16.761719 1.089844 17.179688 1.25 17.5 1.566406 17.808594 1.875 17.980469 2.289062 17.980469 2.726562 17.980469 3.164062 17.808594 3.574219 17.5 3.882812 16.863281 4.519531 15.820312 4.519531 15.183594 3.882812 14.875 3.574219 14.703125 3.164062 14.703125 2.726562 14.703125 2.289062 14.875 1.875 15.183594 1.566406zM13.445312 3.304688L15.761719 5.621094 14.894531 6.488281 12.578125 4.171875zM10.839844 5.910156C11.160156 5.589844 11.582031 5.429688 12 5.429688 12.417969 5.429688 12.839844 5.589844 13.15625 5.910156 13.46875 6.21875 13.636719 6.628906 13.636719 7.066406 13.636719 7.503906 13.46875 7.917969 13.15625 8.226562 12.539062 8.84375 11.460938 8.84375 10.84375 8.226562L10.839844 8.222656C10.203125 7.585938 10.203125 6.546875 10.839844 5.910156zM9.105469 7.648438L11.421875 9.960938 10.550781 10.832031 8.238281 8.515625zM6.5 10.253906C6.808594 9.941406 7.21875 9.773438 7.65625 9.773438 8.09375 9.773438 8.503906 9.941406 8.816406 10.253906 9.125 10.5625 9.296875 10.972656 9.296875 11.410156 9.296875 11.847656 9.125 12.257812 8.816406 12.566406 8.195312 13.1875 7.117188 13.1875 6.5 12.566406 5.859375 11.929688 5.859375 10.890625 6.5 10.253906zM4.761719 11.988281L7.078125 14.304688 6.210938 15.171875 3.894531 12.855469zM4.761719 11.988281"/>
</svg>

<svg xmlns="http://www.w3.org/2000/svg" width="32" height="32" viewBox="0 0 24 24">
    <path d="M23.578 4.75a.408.408 0 0 0-.578 0L21.555 6.2l-.438-.434c-.539-.54-1.484-.54-2.023 0a1.437 1.437 0 0 0 0 2.027l.125.121H17.14a.82.82 0 0 0-.82.82v1.82a2.363 2.363 0 0 0-.848-.152 2.453 2.453 0 0 0-2.387 3.004c-.547-.355-1.336-.297-1.809.176a1.437 1.437 0 0 0 0 2.027l.125.125H9.324a.82.82 0 0 0-.82.817v1.824a1.438 1.438 0 0 0-2.024 0 1.436 1.436 0 0 0 0 2.027l.438.434-1.238 1.238a.399.399 0 0 0-.121.29.819.819 0 1 1-.817-.821.41.41 0 0 0 .41-.41.407.407 0 0 0-.41-.406c-.902 0-1.637.734-1.637 1.636 0 .903.735 1.637 1.637 1.637.836 0 1.524-.637 1.617-1.45l1.137-1.136.434.438c.277.277.644.418 1.011.418a1.431 1.431 0 0 0 1.016-2.441h1.824a.82.82 0 0 0 .82-.821V16.93l.126.125c.277.28.644.418 1.011.418a1.43 1.43 0 0 0 1.188-2.227 2.433 2.433 0 0 0 2.285-.652c.465-.461.719-1.078.719-1.735 0-.296-.051-.582-.153-.847h1.82a.82.82 0 0 0 .821-.82V9.116l.121.121a1.432 1.432 0 1 0 2.027-2.023l-.433-.434 1.449-1.449a.416.416 0 0 0-.004-.582zM9.375 21.27a.612.612 0 0 1-.867 0l-1.45-1.446a.62.62 0 0 1 0-.87.624.624 0 0 1 .872 0l1.445 1.448c.117.114.18.27.18.434 0 .164-.063.32-.18.434zm2.406-2.262H9.324V16.55h2.457zm2.39-2.531c-.23.23-.64.23-.87 0l-1.446-1.45a.599.599 0 0 1-.18-.433c0-.164.063-.317.18-.434a.599.599 0 0 1 .434-.18c.164 0 .32.063.434.18l1.449 1.445a.62.62 0 0 1 0 .872zm2.462-2.461c-.64.636-1.68.636-2.317 0-.64-.641-.64-1.68 0-2.317.309-.308.72-.48 1.157-.48.328 0 .64.097.91.273a.814.814 0 0 0 .453.457 1.628 1.628 0 0 1-.203 2.066zm2.965-2.825h-2.325c-.023-.023-.039-.046-.062-.07-.023-.023-.047-.043-.07-.062V8.734h2.457zm2.39-2.53c-.23.23-.64.23-.87 0l-1.446-1.45a.599.599 0 0 1-.18-.434c0-.164.063-.316.18-.433a.599.599 0 0 1 .433-.18c.165 0 .32.063.434.18l1.45 1.445a.62.62 0 0 1 0 .871zm0 0M3.344 16.3l1.418-1.417.87.87a.82.82 0 0 0 1.157 0l.867-.87a.815.815 0 0 0 .11-1.023 2.417 2.417 0 0 0 1.629-.712 2.456 2.456 0 0 0 .714-1.628c.133.085.29.128.442.128.21 0 .422-.078.582-.238l.867-.87a.817.817 0 0 0 .11-1.02 2.438 2.438 0 0 0 1.624-.715 2.412 2.412 0 0 0 .715-1.63.83.83 0 0 0 1.024-.109l.867-.867a.813.813 0 0 0 .105-1.027 2.45 2.45 0 0 0 1.633-.711c.465-.461.719-1.078.719-1.734 0-.52-.16-1.012-.453-1.422l.601-.606a.408.408 0 1 0-.578-.578l-.605.606a2.449 2.449 0 1 0-3.871 1.895.838.838 0 0 0-1.024.105L12 3.594a.818.818 0 0 0-.105 1.027 2.45 2.45 0 0 0-1.633.711 2.411 2.411 0 0 0-.707 1.629.823.823 0 0 0-1.028.105l-.87.872a.818.818 0 0 0-.11 1.019 2.438 2.438 0 0 0-2.336 2.348.844.844 0 0 0-1.027.105l-.868.867a.819.819 0 0 0 0 1.16l.868.868-1.66 1.66s-.004 0-.008.004a.408.408 0 0 0 0 .578c.32.32.32.84 0 1.16a.823.823 0 0 1-1.157 0 .82.82 0 0 1 0-1.16.408.408 0 1 0-.578-.578 1.636 1.636 0 1 0 2.313 2.316c.539-.539.617-1.355.25-1.984zm11.84-14.734a1.645 1.645 0 0 1 2.316 0 1.634 1.634 0 0 1 0 2.317 1.643 1.643 0 0 1-2.316 0 1.634 1.634 0 0 1 0-2.316zm-1.739 1.739l2.317 2.316-.867.867-2.317-2.316zM10.84 5.91a1.639 1.639 0 1 1 2.316 2.317c-.617.617-1.695.617-2.312 0l-.004-.004a1.639 1.639 0 0 1 0-2.313zM9.105 7.648l2.317 2.313-.871.871-2.313-2.316zM6.5 10.254a1.61 1.61 0 0 1 1.156-.48c.438 0 .848.167 1.16.48.309.309.48.719.48 1.156 0 .438-.171.848-.48 1.156-.62.621-1.699.621-2.316 0a1.631 1.631 0 0 1 0-2.312zm-1.738 1.734l2.316 2.317-.867.867-2.316-2.317zm0 0"/>
</svg>
